X: 352
U:~=!turn!
M:C
L:1/8
K:G
g | (e/f/g) d>g B>gd<B | {/d}c>AB<G E2 Eg | (e/f/g) d>g B>gd<B | c>Ad<B G2 Gg |
e<gd<b c<aB<g | c>AB>G E2 ~EA | G<DD>E G>AB<e | d<BA>B G2 G |]


